packages/foundations/assets/icons/functional/images/environment/globe_32.svg

<svg width="32" height="32" viewBox="0 0 32 32" fill="none" xmlns="http://www.w3.org/2000/svg">
<g clip-path="url(#clip0_185_798)">
<path fill-rule="evenodd" clip-rule="evenodd" d="M16 2C23.7188 2 30 8.2813 30 16C30 23.7187 23.7188 30 16 30C8.28126 30 2.00006 23.7187 2.00006 16C2.00006 8.2813 8.28126 2 16 2ZM20.9688 17H10.875C11.4688 22.4062 15.1563 26.8125 16.1875 28C22.375 27.875 27.4375 23.0937 27.9375 17H22.9691C22.9063 19.0937 22.4063 21.2187 21.4688 23.4062C21.3125 23.7812 20.9375 24 20.5625 24C19.9688 24 19.5313 23.5312 19.5313 23C19.5313 22.875 19.5625 22.7187 19.625 22.5937C20.4688 20.6875 20.9063 18.8125 20.9688 17ZM8.87496 17H4.06246C4.49996 22.25 8.34376 26.5625 13.375 27.6875C11.6875 25.4687 9.31246 21.5937 8.87496 17ZM18.375 4.25C20.0625 6.4688 22.5 10.375 22.9375 15H27.9375C27.5 9.6563 23.5313 5.2813 18.375 4.25ZM15.625 4.0313C9.49996 4.2188 4.56246 8.9688 4.06246 15H8.81246C8.90626 12.9063 9.40626 10.7813 10.3125 8.5938C10.4688 8.2188 10.8438 8 11.2188 8C11.875 8 12.25 8.4688 12.25 9C12.25 9.125 12.2188 9.2813 12.1563 9.4063C11.3438 11.3125 10.9063 13.1875 10.8125 15H20.9063C20.3125 9.625 16.6875 5.1875 15.625 4.0313Z" fill="#1A1C1F"/>
</g>
<defs>
<clipPath id="clip0_185_798">
<rect width="32" height="32" fill="white"/>
</clipPath>
</defs>
</svg>

<svg xmlns="http://www.w3.org/2000/svg" width="32" height="32" fill="none"><g clip-path="url(#a)"><path fill="#1A1C1F" fill-rule="evenodd" d="M16 2c7.719 0 14 6.281 14 14s-6.281 14-14 14S2 23.719 2 16 8.281 2 16 2m4.969 15H10.875c.594 5.406 4.281 9.813 5.313 11 6.187-.125 11.25-4.906 11.75-11h-4.969c-.063 2.094-.563 4.219-1.5 6.406a.98.98 0 0 1-.907.594 1.014 1.014 0 0 1-1.03-1c0-.125.03-.281.093-.406.844-1.907 1.281-3.782 1.344-5.594M8.875 17H4.062c.438 5.25 4.282 9.563 9.313 10.688-1.687-2.22-4.063-6.094-4.5-10.688m9.5-12.75C20.063 6.469 22.5 10.375 22.938 15h5C27.5 9.656 23.53 5.281 18.374 4.25m-2.75-.219A11.96 11.96 0 0 0 4.062 15h4.75c.094-2.094.594-4.219 1.5-6.406A.98.98 0 0 1 11.22 8c.656 0 1.031.469 1.031 1a1 1 0 0 1-.094.406c-.812 1.906-1.25 3.781-1.344 5.594h10.094c-.593-5.375-4.218-9.812-5.281-10.969" clip-rule="evenodd"/></g><defs><clipPath id="a"><path fill="#fff" d="M0 0h32v32H0z"/></clipPath></defs></svg>
